!!!COM: Mozart, Wolfgang Amadeus
!!!OTL: String Quartet No. 17 in B-flat Major ("Hunt")
!!!OMD: Allegro vivace assai
!!!OMV: 1
!!!SCT1: K<sup>1</sup> 458
!!!SCA: Chronologisch-thematisches Verzeichnis sämtlicher Tonwerke Wolfgang Amade Mozarts (L. von Köchel; 1862, 2/1905, 3/1937, 1947)
!!!SCT2: K<sup>6</sup> 458
!!!YOR: Breitkopf & Härtel Edition
!!!ENC: Frances Bennion
!!!CDT: 1756/1/27/-1791/12/5/
!!!OCY: Österreich
!!!YEC: Copyright (c) 1994, 2000 Center for Computer Assisted Research in the Humanities
!!!YEM: Rights to all derivative editions reserved.
!!!YEM: Refer to licensing agreement for further details.
!!!YEN: United States of America
**kern	**kern	**kern	**kern
*k[b-e-]	*k[b-e-]	*k[b-e-]	*k[b-e-]
*B-:	*B-:	*B-:	*B-:
*clefC	*clefF	*clefG	*clefG
*M6/8	*M6/8	*M6/8	*M6/8
2r	2r	2r	2r
8r	8r	8r	8r
8r	8r	8dd	8ff
=1	=1	=1	=1
4B-	4b-	8dd	8ff
.	.	8b-	8dd
8r	8f	8b-	8dd
4BB-	8f	8b-	8dd
.	8d	8f	8b-
8r	8d	8f	8b-
=2	=2	=2	=2
4D	4d	4f	4b-
8BB-	8f	8b-	8dd
4F	4.f	4a	4cc
8D	.	8b-	8dd
=3	=3	=3	=3
4C	8.g	4cc	8.ee-
.	16f	.	16dd
8r	8e-	8r	8cc
8E-	4e-	4.c	8g
8C	.	.	8b-
8F	8c	.	8a
=4	=4	=4	=4
4D	8B-	4f	4b-
.	8d	.	.
8BB-	8f	8b-	8dd
4F	4f	4a	4cc
8r	8r	8dd	8ff
=5	=5	=5	=5
4B-	4b-	16dd	16ff
.	.	16ee-	16gg
.	.	8dd	8ff
8r	8f	8b-	8dd
4BB-	16f	16b-	16dd
.	16g	16cc	16ee-
.	8f	8b-	8dd
8r	8d	8f	8b-
=6	=6	=6	=6
4D	4d	4f	4b-
8BB-	8f	8b-	8dd
4F	4.f	4a	4cc
8D	.	8b-	8dd
=7	=7	=7	=7
4C	8.g	4cc	8.ee-
.	16f	.	16dd
8r	8e-	8r	8cc
8E-	4.e-	4.c	8g
8C	.	.	8b-
8F	.	.	8a
=8	=8	=8	=8
8BB-	4d	8B-	4b-
8BB-	.	16B-	.
.	.	16A	.
8BB-	8f	16B-	8dd
.	.	16A	.
[4.BB-	4d	4B-	4b-
.	8d	8f	8r
=9	=9	=9	=9
2.BB-_	4e-	4g	2.r
.	8d	8f	.
.	8.c	8.e-	.
.	16B-	16d	.
.	8c	8e-	.
=10	=10	=10	=10
2.BB-]	2d	8f	2r
.	.	8a	.
.	.	8b-	.
.	.	4.f	.
.	8a	.	8r
.	8b-	.	8dd
=11	=11	=11	=11
2.FF	2.f	2.a 2.c	16ee-
.	.	.	16ff
.	.	.	16gg
.	.	.	16ff
.	.	.	16ee-
.	.	.	16dd
.	.	.	16cc
.	.	.	16b-
.	.	.	16a
.	.	.	16g
.	.	.	16f
.	.	.	16e-
=12	=12	=12	=12
2BB-	[2f	[2b-	16d
.	.	.	16e-
.	.	.	16f
.	.	.	16g
.	.	.	16a
.	.	.	16b-
.	.	.	4f
8BB-	8f] 8B-	8b-] 8d	.
8BB-	8d	8f	8r
=13	=13	=13	=13
[2.BB-	4e-	4g	2.r
.	8d	8f	.
.	8.c	8.e-	.
.	16B-	16d	.
.	8c	8e-	.
=14	=14	=14	=14
2.BB-]	2d	8f	2r
.	.	8a	.
.	.	8b-	.
.	.	4.f	.
.	8a	.	8r
.	8b-	.	8dd
=15	=15	=15	=15
2.FF	4.a	2.cc 2.e-	16ee-
.	.	.	16dd
.	.	.	16cc
.	.	.	16b-
.	.	.	16a
.	.	.	16b-
.	[4.f	.	16cc
.	.	.	16dd
.	.	.	16ee-
.	.	.	16ff
.	.	.	16gg
.	.	.	16aa
=16	=16	=16	=16
8BB-	8f]	8b- 8d	8bb-
4r	4r	4r	16r
.	.	.	16b-
.	.	.	16a
.	.	.	16b-
4.F	[4.f	4.cc 4.e-	16cc
.	.	.	16dd
.	.	.	16ee-
.	.	.	16ff
.	.	.	16gg
.	.	.	16aa
=17	=17	=17	=17
8B-	8f]	8b- 8d	8bb-
4r	4r	4r	16r
.	.	.	16b-
.	.	.	16a
.	.	.	16b-
4.F	[4.f	4.cc 4.e-	16cc
.	.	.	16dd
.	.	.	16ee-
.	.	.	16ff
.	.	.	16gg
.	.	.	16aa
=18	=18	=18	=18
8B-	8f]	8b- 8d	8bb-
8B-	8b-	8bb-	4r
8B-	8b-	8bb-	.
8r	8r	8r	8gg
8G	8g	8gg	4r
8G	8g	8gg	.
=19	=19	=19	=19
8r	8r	8r	8dd
8D	8d	8dd	4r
8D	8d	8dd	.
8r	8r	8r	8ee
8E	8e	8ee	4r
8E	8e	8ee	.
=20	=20	=20	=20
[2.F	8r	8r	[2.ff
.	8A	8c	.
.	8c	8e-	.
.	8B-	8d	.
.	8A	8c	.
.	8G	8B-	.
=21	=21	=21	=21
2.F_	8F	8A	2.ff_
.	8A	8c	.
.	8c	8e-	.
.	8B-	8d	.
.	8A	8c	.
.	8G	8B-	.
=22	=22	=22	=22
8F]	8F	8A	8ff]
8r	8r	8r	8gg
8C	8G	8B-	8ee
8F	8F	8A	8ff
8r	8r	8r	8aa
8C	8G	8B-	8ee
=23	=23	=23	=23
8F	8F	8A	8ff
8r	8r	8r	8ccc
8c	8g	8b-	8ee
8F	8f	8a	8ff
8r	8r	8r	8fff
8c	8g	8b-	8ee
=24	=24	=24	=24
8F	8f	8a	8ff
8F	8c	8a	8ff
8F	8c	8a	8ff
8F	8c	8a	8ff
8F	8c	8a	8ff
8F	8c	8a	8ff
=25	=25	=25	=25
4F	4c	4a	4ff
2r	2r	2r	8r
.	.	.	4ff
.	.	.	8r
=26	=26	=26	=26
2.r	2r	2r	2.ff
.	8r	8r	.
.	8G	8f	.
=27	=27	=27	=27
2.r	8d	8f	2.ff
.	8B-	8d	.
.	8B-	8d	.
.	8B-	8d	.
.	8D	8B-	.
.	8D	8B-	.
=28	=28	=28	=28
4D	4F	4B-	2.ff
8BB-	8B-	8d	.
4F	4A	4c	.
8r	8B	8d	.
=29	=29	=29	=29
2.r	16c	16e-	2.ff
.	16d	16f	.
.	8c	8e-	.
.	8A	8c	.
.	16A	16c	.
.	16B-	16d	.
.	8A	8c	.
.	8C	8A	.
=30	=30	=30	=30
4FF	4C	4A	4.ff
8AA	8c	8e-	.
4BB-	4B-	4d	4f
8AA	8c	8f#	[8dd
=31	=31	=31	=31
4.GG	4.B-	4.g	8dd]
.	.	.	16ee
.	.	.	16ff#
.	.	.	16gg
.	.	.	16aa
4.G	4G	4d	16bb-
.	.	.	16aa
.	.	.	16gg
.	.	.	16ff
.	8g	8b-	16ee
.	.	.	16dd
=32	=32	=32	=32
4.E	4.g	4.b-	16dd
.	.	.	16cc
.	.	.	16dd
.	.	.	16ee
.	.	.	16ff
.	.	.	16gg
4.F	[4.f	[4.a	16aa
.	.	.	16gg
.	.	.	16ff
.	.	.	16ee
.	.	.	16dd
.	.	.	16cc
=33	=33	=33	=33
4.D	4.f]	4.a]	16cc
.	.	.	16b-
.	.	.	16cc
.	.	.	16dd
.	.	.	16ee
.	.	.	16ff
4.E	[4.e	[4.g	16gg
.	.	.	16ff
.	.	.	16ee
.	.	.	16dd
.	.	.	16cc
.	.	.	16b-
=34	=34	=34	=34
4.C#	4.e]	4.g]	16b-
.	.	.	16a
.	.	.	16b
.	.	.	16cc#
.	.	.	16dd
.	.	.	16ee
4.D	4.d	4.f	16ff
.	.	.	16ee
.	.	.	16dd
.	.	.	16cc
.	.	.	16b-
.	.	.	16a
=35	=35	=35	=35
4.BB-	4.d	4.f	8a
.	.	.	8g
.	.	.	8dd
8GG	8B-	8dd	8bb-
8AA	8c	8cc	8aa
8BB-	8d	8b-	8gg
=36	=36	=36	=36
4.C	4.c	4a	4ff
.	.	8g	4ee
4.E	4B-	4g	.
.	.	.	8dd
.	8G	8b-	8cc
=37	=37	=37	=37
4.F	4.A	8a	8cc
.	.	8cc	8ff
.	.	8a	8cc
8AA	8c	8a	8cc
8BB-	8d	8g	8b-
8BB	8d	8f	8a
=38	=38	=38	=38
4.C	[2.c	8f	8a
.	.	8e	8g
.	.	4b-	4dd
4.E	.	.	.
.	.	8a	8cc
.	.	8g	8b-
=39	=39	=39	=39
4.F	2c_	8a	8b-
.	.	8f	8a
.	.	4a	4cc
4A	.	.	.
.	8c]	8g	8b-
8B-	8d	8f	8a
=40	=40	=40	=40
4.c	[2.c	8f	8a
.	.	8e	8g
.	.	4b-	4dd
4.E	.	.	.
.	.	8a	8cc
.	.	8g	8b-
=41	=41	=41	=41
4.F	4c]	8g	8b-
.	.	8f	8a
.	8A	4a	4cc
4.D	4.F	.	.
.	.	8r	8a
.	.	8f	8f
=42	=42	=42	=42
4.C	4.G	4.e	16cc
.	.	.	16dd
.	.	.	16cc
.	.	.	16dd
.	.	.	8cc
4.r	4.r	8r	4.r
.	.	8a	.
.	.	8f	.
=43	=43	=43	=43
2.r	2r	16cc	2.r
.	.	16dd	.
.	.	16cc	.
.	.	16dd	.
.	.	8cc	.
.	.	4.r	.
.	8A	.	.
.	8F	.	.
=44	=44	=44	=44
2r	16c	2.r	2.r
.	16d	.	.
.	16c	.	.
.	16d	.	.
.	8c	.	.
.	4.r	.	.
8AA	.	.	.
8FF	.	.	.
=45	=45	=45	=45
16C	4.r	2.r	2.r
16D	.	.	.
16C	.	.	.
16D	.	.	.
8C	.	.	.
4.r	16c	.	.
.	16d	.	.
.	16c	.	.
.	16d	.	.
.	8c	.	.
=46	=46	=46	=46
2.r	2.r	16cc	4.r
.	.	16dd	.
.	.	16cc	.
.	.	16dd	.
.	.	8cc	.
.	.	4.r	16ccc
.	.	.	16ddd
.	.	.	16ccc
.	.	.	16ddd
.	.	.	8ccc
=47	=47	=47	=47
4.C	2.r	4.e 4.G	16b-
.	.	.	16cc
.	.	.	16b-
.	.	.	16cc
.	.	.	8b-
4.D-	.	4.f	8r
.	.	.	8b-
.	.	.	8b-
=48	=48	=48	=48
4.C	16B-	4.g 4.G	4ff
.	16c	.	.
.	16B-	.	.
.	16c	.	.
.	8B-	.	8ee
4.D-	8r	4.f	4.r
.	8B-	.	.
.	8B-	.	.
=49	=49	=49	=49
4.C	4f	4.g	16b-
.	.	.	16cc
.	.	.	16b-
.	.	.	16cc
.	8e	.	8b-
4.D-	4.r	4.f	8r
.	.	.	8b-
.	.	.	8b-
=50	=50	=50	=50
4.C	16B-	4.g	4ff
.	16c	.	.
.	16B-	.	.
.	16c	.	.
.	8B-	.	8ee
4.B-	4g	[4.cc	4bb-
.	16e	.	16gg
.	16g	.	16ee
=51	=51	=51	=51
8A	8f	8cc]	16ff
.	.	.	16gg
4r	4r	4r	16ff
.	.	.	16gg
.	.	.	8aa
8B-	8f	8b-	16dd
.	.	.	16ee
4r	4r	4r	16dd
.	.	.	16ee
.	.	.	8ff
=52	=52	=52	=52
8G	8B-	8d	16b-
.	.	.	16cc
4r	4r	4r	16b-
.	.	.	16cc
.	.	.	8dd
8E	8c	8g	16g
.	.	.	16a
4r	4r	4r	16g
.	.	.	16a
.	.	.	8b-
=53	=53	=53	=53
4.F	4.c	8f	8a
.	.	8b-	8dd
.	.	8a	8cc
8BB-	8d	8g	8b-
8C	8c	8f	8a
8C	8B-	8e	8g
=54	=54	=54	=54
4FF	4A	4f	4f
2r	2r	8r	2r
.	.	8f	.
.	.	8g	.
.	.	8a	.
=55	=55	=55	=55
4E	4B-	16c	2.r
.	.	16d	.
.	.	16c	.
.	.	16d	.
8F	8A	8c	.
4.r	4.r	8f	.
.	.	8g	.
.	.	8a	.
=56	=56	=56	=56
4E	4B-	16c	2.r
.	.	16d	.
.	.	16c	.
.	.	16d	.
8F	8A	8c	.
4.r	4.r	8f	.
.	.	8g	.
.	.	8a	.
=57	=57	=57	=57
4E	4B-	16c	2.r
.	.	16d	.
.	.	16c	.
.	.	16d	.
8F	8A	8c	.
4A	4e-	16f	.
.	.	16g	.
.	.	16f	.
.	.	16g	.
8B-	8d	8f	.
=58	=58	=58	=58
4B	4f	16g	2.r
.	.	16a	.
.	.	16g	.
.	.	16a	.
8c	8e	8g	.
4e	4b-	16cc	.
.	.	16dd	.
.	.	16cc	.
.	.	16dd	.
8f	8a	8cc	.
=59	=59	=59	=59
4B-	8r	8r	2.r
.	8b-	8dd	.
8r	8a	8cc	.
4c	8g	8b-	.
.	8f	8a	.
8r	8e	8g	.
=60	=60	=60	=60
4F	4f	4f	4.r
2r	2r	2r	.
.	.	.	8ff
.	.	.	8gg
.	.	.	8aa
=61	=61	=61	=61
2.r	4e	4b-	16cc
.	.	.	16dd
.	.	.	16cc
.	.	.	16dd
.	8f	8a	8cc
.	4.r	4.r	8ff
.	.	.	8gg
.	.	.	8aa
=62	=62	=62	=62
2.r	4e	4b-	16cc
.	.	.	16dd
.	.	.	16cc
.	.	.	16dd
.	8f	8a	8cc
.	4.r	4.r	8ff
.	.	.	8gg
.	.	.	8aa
=63	=63	=63	=63
2.r	4c#	4g	16a
.	.	.	16b-
.	.	.	16a
.	.	.	16b-
.	8d	8f	8a
.	4f#	4cc	16dd
.	.	.	16ee-
.	.	.	16dd
.	.	.	16ee-
.	8g	8b-	8dd
=64	=64	=64	=64
4B	4f	16g	16gg
.	.	16a	16aa
.	.	16g	16gg
.	.	16a	16aa
8c	8e	8g	8gg
4e	4b-	16cc	16ccc
.	.	16dd	16ddd
.	.	16cc	16ccc
.	.	16dd	16ddd
8f	8a	8cc	8ccc
=65	=65	=65	=65
4B-	8r	8r	8r
.	8b-	8dd	8ddd
8r	8a	8cc	8ccc
4c	8g	8b-	8bb-
.	8f	8a	8aa
8r	8e	8g	8gg
=66	=66	=66	=66
16f	16a	4f	2.ff
16g	16b-	.	.
16f	16a	.	.
16g	16b-	.	.
8a	8cc	2r	.
16d	16f	.	.
16e	16g	.	.
16d	16f	.	.
16e	16g	.	.
8f	8a	.	.
=67	=67	=67	=67
16B-	16d	16g	2.ddd
16c	16e	16a	.
16B-	16d	16g	.
16c	16e	16a	.
8d	8f	8b-	.
16G	16B-	16e	.
16A	16c	16f	.
16G	16B-	16e	.
16A	16c	16f	.
8B-	8d	8g	.
=68	=68	=68	=68
4E	4g	4bb-	16ccc
.	.	.	16ddd
.	.	.	16ccc
.	.	.	16ddd
8F	8a	8aa	8ccc
8B-	8dd	8gg	8bb-
8c	8cc	8ff	8aa
8c	8b-	8ee	8gg
=69	=69	=69	=69
16F	16a	4ff	2.ff
16G	16b-	.	.
16F	16a	.	.
16G	16b-	.	.
8A	8cc	2r	.
16D	16f	.	.
16E	16g	.	.
16D	16f	.	.
16E	16g	.	.
8F	8a	.	.
=70	=70	=70	=70
16BB-	16d	16g	2.ddd
16C	16e	16a	.
16BB-	16d	16g	.
16C	16e	16a	.
8D	8f	8b-	.
16GG	16B-	16e	.
16AA	16c	16f	.
16GG	16B-	16e	.
16AA	16c	16f	.
8BB-	8d	8g	.
=71	=71	=71	=71
2.EE	2.G	2.B-	2.ddd-
=72	=72	=72	=72
2.FF#	2.A	2.e-	2.ccc
=73	=73	=73	=73
2.GG#	2.d	[2.f	2.bb
=74	=74	=74	=74
4.AA	4.c	4.f]	4.ccc
4.BB	[4.f	4.a-	4.ddd
=75	=75	=75	=75
8C	8f]	8a	8ccc
2r	2r	2r	8bb
.	.	.	8bb-
.	.	.	8aa
.	.	.	8aa-
8r	8r	8r	8gg
=76	=76	=76	=76
2.CC	4.A	4.c	4.ff
.	4.B-	4.e	4.gg
=77	=77	=77	=77
[2.FF	4.A	4.f	[2.ff
.	4r	4r	.
.	8a	8cc	.
=78	=78	=78	=78
2.FF_	4b-	4dd	2.ff_
.	8a	8cc	.
.	8.g	8.b-	.
.	16f	16a	.
.	8g	8b-	.
=79	=79	=79	=79
2FF_	4g#	4b	2ff_
.	8a	8cc	.
.	4f	4a	.
8FF]	.	.	8ff]
8AA	8c	8e-	8ff#
=80	=80	=80	=80
4.BB-	4.B-	4.d	4gg
.	.	.	8ff
4.C	4.G	4.B-	8.ee
.	.	.	16dd
.	.	.	8ee
=81	=81	=81	=81
[2.F	4.F	4.A	8ff
.	.	.	8aa
.	.	.	8ccc
.	4r	4r	[4.ff
.	8a	8cc#	.
=82	=82	=82	=82
2.F_	4b-	4dd	2.ff_
.	8a	8cc	.
.	8.g	8.b-	.
.	16f	16a	.
.	8g	8b-	.
=83	=83	=83	=83
4F]	4g#	4b	4.ff]
8E-	8a	8cc	.
4.D	8.cc	8.ee-	4.ff#
.	16b-	16dd	.
.	8a	8cc	.
=84	=84	=84	=84
4G	4g	4b-	8gg
.	.	.	8bb-
8r	8r	8r	8ddd
4C	4g	4b-	8ddd
.	.	.	8ccc
8r	8r	8r	8ee
=85	=85	=85	=85
4F	4f	4a	8ff
.	.	.	8aa
8r	8r	8r	8ccc
4D	4f	4a	8ccc
.	.	.	8bb-
8r	8r	8r	8aa
=86	=86	=86	=86
4BB-	4g	4b-	8gg
.	.	.	8bb-
8r	8r	8r	8ddd
4C	4g	4b-	8ddd
.	.	.	8ccc
8r	8r	8r	8ee
=87	=87	=87	=87
4F	4f	4a	8ff
.	.	.	8aa
8r	8r	8r	8ccc
4d	4f	4a	8ccc
.	.	.	8bb-
8r	8r	8r	8aa
=88	=88	=88	=88
4B-	4g	4b-	8gg
.	.	.	8bb-
8r	8r	8r	8ddd
4c	4g	4b-	8ddd
.	.	.	8ccc
8r	8r	8r	8ee
=89	=89	=89	=89
4F	4f	4a	4ff
8r	8r	8r	8r
4f	4cc	4aa	4fff
8r	8r	8r	8r
=90	=90	=90	=90
4f	4cc	4aa	4fff
2r	2r	2r	4.r
.	.	.	8cc
=91	=91	=91	=91
[2.FF	2A	[2.c	2cc
.	8F	.	8a
.	8A	.	8ff
=92	=92	=92	=92
2.FF]	2A	2.c_	2cc
.	8c	.	8a
.	8A	.	8f
=93	=93	=93	=93
[2.C	8B-	2.c_	8e
.	8G	.	8g
.	8E	.	8b-
.	8E	.	8b-
.	8E	.	8b-
.	8E	.	8b-
=94	=94	=94	=94
4.C]	4.E	2.c_	4.b-
8FF	4F	.	4a
4r	.	.	.
.	8A	.	8cc
=95	=95	=95	=95
[2.FF	2A	2.c_	2cc
.	8F	.	8a
.	8A	.	8ff
=96	=96	=96	=96
2.FF]	2A	2.c_	2cc
.	8c	.	8a
.	8A	.	8f
=97	=97	=97	=97
2.CC	2G	2.c_	2b-
.	8B-	.	8g
.	8G	.	8e
=98	=98	=98	=98
4FF	4A	4c]	8f
.	.	.	8f
2r	2r	2r	8a
.	.	.	8cc
.	.	.	8ff
.	.	.	8aa
=99	=99	=99	=99
[2.F	[2.f	8a	2ccc
.	.	8c	.
.	.	8f	.
.	.	8a	.
.	.	8f	8aa
.	.	8cc	8fff
=100	=100	=100	=100
2.F]	2f_	8a	2ccc
.	.	8c	.
.	.	8f	.
.	.	8a	.
.	8f]	8cc	8aa
.	8F	8a	8ff
=101	=101	=101	=101
8C	8G	8b-	8ee
8E	8B-	8g	8gg
8G	8c	8e	8bb-
8c	8g	8e	8bb-
8c	8g	8e	8bb-
8c	8g	8e	8bb-
=102	=102	=102	=102
4.c	4.g	8e	4.bb-
.	.	8d	.
.	.	8e	.
8F	8f	8f	4aa
4r	4r	8c	.
.	.	8a	8ccc
=103	=103	=103	=103
[2.F	[2.f	8a	2ccc
.	.	8c	.
.	.	8f	.
.	.	8a	.
.	.	8f	8aa
.	.	8cc	8fff
=104	=104	=104	=104
2.F]	2f_	8a	2ccc
.	.	8c	.
.	.	8f	.
.	.	8a	.
.	8f]	8cc	8aa
.	8F	8a	8ff
=105	=105	=105	=105
8C	8G	8e	2bb-
8E	8B-	8g	.
8G	8c	8e	.
8c	8e	8g	.
8c	8e	8b-	8gg
8c	8g	8b-	8ee
=106	=106	=106	=106
8F	8f	8a-	4ff
8F	8A-	8c	.
8F	8A-	8c	4r
8F	8A-	8c	.
4r	4r	4r	16f
.	.	.	16e
.	.	.	16g
.	.	.	16f
=107	=107	=107	=107
8r	8r	8r	8a-
8F	8c	8f	4.r
8F	8c	8f	.
8F	8c	8f	.
4r	4r	4r	16a-
.	.	.	16g
.	.	.	16b-
.	.	.	16a-
=108	=108	=108	=108
8r	8r	8r	8cc
8F	8f	8a-	4.r
8F	8f	8a-	.
8F	8f	8a-	.
4r	4r	4r	16ff
.	.	.	16ee
.	.	.	16gg
.	.	.	16ff
=109	=109	=109	=109
8r	8r	8r	4.aa-
8F	8f	8cc	.
8F	8f	8cc	.
8r	8r	8r	4.cc
8A-	8c	8f	.
8A-	8c	8f	.
=110	=110	=110	=110
8r	8r	8r	4b
8G	8d	8f	.
8G	8d	8f	4r
8G	8d	8f	.
4r	4r	4r	16b
.	.	.	16a
.	.	.	16cc
.	.	.	16b
=111	=111	=111	=111
8r	8r	8r	8dd
8G	8f	8b	4.r
8G	8f	8b	.
8G	8f	8b	.
4r	4r	4r	16dd
.	.	.	16cc
.	.	.	16ee-
.	.	.	16dd
=112	=112	=112	=112
8r	8r	8r	8ff
8G	8b	8dd	4.r
8G	8b	8dd	.
8G	8b	8dd	.
4r	4r	4r	16bb
.	.	.	16aa
.	.	.	16ccc
.	.	.	16bb
=113	=113	=113	=113
8r	8r	8r	4.ddd
8G	8b	8ff	.
8G	8b	8ff	.
8r	8r	8r	4.ff
8G	8b	8dd	.
8G	8b	8dd	.
=114	=114	=114	=114
8r	8r	8r	4ee-
8C	16E-	16c	.
.	16D	16B	.
8C	16F	16d	4r
.	16E-	16c	.
8C	8G	8e-	.
4r	4r	4r	16e-
.	.	.	16d
.	.	.	16f
.	.	.	16e-
=115	=115	=115	=115
8r	8r	8r	8g
8C	16c	16e-	4.r
.	16B	16d	.
8C	16d	16f	.
.	16c	16e-	.
8C	8e-	8g	.
4r	4r	4r	16cc
.	.	.	16b
.	.	.	16dd
.	.	.	16cc
=116	=116	=116	=116
8r	8r	8r	8ee-
8C	16e-	16cc	4.r
.	16d	16b	.
8C	16f	16dd	.
.	16e-	16cc	.
8C	8g	8ee-	.
4r	4r	4r	16ee-
.	.	.	16dd
.	.	.	16ff
.	.	.	16ee-
=117	=117	=117	=117
8r	2.r	4.ee-	4.gg
16C	.	.	.
16BB	.	.	.
16D	.	.	.
16C	.	.	.
8E-	.	4.g	4.b-
16BB-	.	.	.
16AA	.	.	.
16C	.	.	.
16BB-	.	.	.
=118	=118	=118	=118
8D	8r	8f#	8a
16D	16F#	4.r	4.r
16C#	16E	.	.
16E	16G	.	.
16D	16F#	.	.
8F#	8A	.	.
4r	4r	16f#	16a
.	.	16e	16g
.	.	16g	16b-
.	.	16f#	16a
=119	=119	=119	=119
8r	8r	8a	8cc
16d	16f#	4.r	4.r
16c#	16e	.	.
16e	16g	.	.
16d	16f#	.	.
8f#	8a	.	.
4r	4r	16a	16ff#
.	.	16g	16ee
.	.	16b-	16gg
.	.	16a	16ff#
=120	=120	=120	=120
8r	2r	8cc	8aa
16A	.	4.r	16cc
16G	.	.	16b-
16B-	.	.	16dd
16A	.	.	16cc
8c	.	.	8ee-
4r	16f#	16aa	8r
.	16e	16gg	.
.	16g	16bb-	8r
.	16f#	16aa	.
=121	=121	=121	=121
8r	4.a	4.ccc	2r
16D	.	.	.
16C#	.	.	.
16E	.	.	.
16D	.	.	.
8F#	4.A	4.cc	.
4r	.	.	16gg
.	.	.	16ff#
.	.	.	16aa
.	.	.	16gg
=122	=122	=122	=122
8r	4.G	4.b-	8bb-
16GG	.	.	4.r
16FF#	.	.	.
16AA	.	.	.
16GG	.	.	.
8BB-	4.f	4.dd-	.
4r	.	.	16gg
.	.	.	16ff
.	.	.	16aa-
.	.	.	16gg
=123	=123	=123	=123
8r	4.e	4.cc	8bb-
16C	.	.	4.r
16BB	.	.	.
16D	.	.	.
16C	.	.	.
8E	4.g	4.b-	.
4r	.	.	16ff
.	.	.	16ee
.	.	.	16gg
.	.	.	16ff
=124	=124	=124	=124
8r	4.f	4.a-	8aa-
16FF	.	.	4.r
16EE	.	.	.
16GG	.	.	.
16FF	.	.	.
8AA-	4.c-	4.e-	.
4r	.	.	16ff
.	.	.	16ee-
.	.	.	16gg-
.	.	.	16ff
=125	=125	=125	=125
8r	4.B-	4.d	8aa-
16BB-	.	.	4.r
16AA	.	.	.
16C	.	.	.
16BB-	.	.	.
4.D	4.f	4.a-	.
.	.	.	8ff
.	.	.	8b-
=126	=126	=126	=126
4.E-	8e-	16g	16bb-
.	.	16e-	16ccc
.	8e-	16B-	16bb-
.	.	16e-	16ccc
.	8B-	16g	8bb-
.	.	16e-	.
4.D	16b-	16a-	8r
.	16cc	16f	.
.	16b-	16B-	8ff
.	16cc	16f	.
.	8b-	16a-	8b-
.	.	16f	.
=127	=127	=127	=127
4.E-	8r	16g	16bb-
.	.	16e-	16ccc
.	8e-	16B-	16bb-
.	.	16e-	16ccc
.	8B-	16g	8bb-
.	.	16e-	.
4.D	16b-	16a-	8r
.	16cc	16f	.
.	16b-	16B-	8ff
.	16cc	16f	.
.	8b-	16a-	8b-
.	.	16f	.
=128	=128	=128	=128
4E-	16g	4e-	16bb-
.	16a-	.	16ccc
.	16g	.	16bb-
.	16a-	.	16ccc
2r	8g	2r	8bb-
.	16e-	.	16gg
.	16f	.	16aa-
.	16e-	.	16gg
.	16f	.	16aa-
.	8e-	.	8gg
=129	=129	=129	=129
16C	16c	16e-	16ee-
16D	16d	16f	16ff
16C	16c	16e-	16ee-
16D	16d	16f	16ff
8C	8c	8e-	8ee-
16AA	16A	16c	16cc
16BB-	16B-	16d	16dd
16AA	16A	16c	16cc
16BB-	16B-	16d	16dd
8AA	8A	8c	8cc
=130	=130	=130	=130
4FF	8F	4.A	4.a
.	8c	.	.
4r	8F	.	.
.	16f	4.cc	4.ee-
.	16g	.	.
8AA	16f	.	.
.	16g	.	.
8FF	8f	.	.
=131	=131	=131	=131
16F	8r	4.b-	4.dd
16G	.	.	.
16F	8d	.	.
16G	.	.	.
8F	8B-	.	.
8r	16e	4.gg	4.bb-
.	16f	.	.
8BB-	16e	.	.
.	16f	.	.
8FF	8e	.	.
=132	=132	=132	=132
16F	8r	4.ff	4.aa
16G	.	.	.
16F	8f	.	.
16G	.	.	.
8F	8c	.	.
8r	16e-	4.aa	4.ccc
.	16f	.	.
8C	16e-	.	.
.	16f	.	.
8FF	8e-	.	.
=133	=133	=133	=133
16F	8r	4.bb-	4.ddd-
16G	.	.	.
16F	8d-	.	.
16G	.	.	.
8F	8B-	.	.
8r	16g	16b-	4.ee
.	16a	16cc	.
8F	16g	16b-	.
.	16a	16cc	.
8FF	8g	8b-	.
=134	=134	=134	=134
8F	8f	8a	8ff
2r	2r	2r	4r
.	.	.	8a
.	.	.	8f
8r	8r	8r	8a
=135	=135	=135	=135
2.r	2.r	4.r	8cc
.	.	.	4r
.	.	8cc	8aa
.	.	8a	8ff
.	.	8cc	8aa
=136	=136	=136	=136
4.r	4.r	8ee-	8ccc
.	.	4r	4r
8A	8c	8aa	8ccc
8c	8e-	8ff	8aa
8A	8c	8aa	8ccc
=137	=137	=137	=137
8F	8A	8ccc	8eee-
2r	2r	2r	2r
8r	8r	8dd	8ff
=138	=138	=138	=138
4B-	4b-	8dd	8ff
.	.	8b-	8dd
8r	8f	8b-	8dd
4BB-	8f	8b-	8dd
.	8d	8f	8b-
8r	8d	8f	8b-
=139	=139	=139	=139
4D	4d	4f	4b-
8BB-	8f	8b-	8dd
4F	4.f	4a	4cc
8D	.	8b-	8dd
=140	=140	=140	=140
4C	8.g	4cc	8.ee-
.	16f	.	16dd
8r	8e-	8r	8cc
8E-	4e-	4.c	8g
8C	.	.	8b-
8F	8c	.	8a
=141	=141	=141	=141
4D	8B-	4f	4b-
.	8d	.	.
8BB-	8f	8b-	8dd
4F	4f	4a	4cc
8r	8r	8dd	8ff
=142	=142	=142	=142
4B-	4b-	16dd	16ff
.	.	16ee-	16gg
.	.	8dd	8ff
8r	8f	8b-	8dd
4BB-	16f	16b-	16dd
.	16g	16cc	16ee-
.	8f	8b-	8dd
8r	8d	8f	8b-
=143	=143	=143	=143
4D	4d	4f	4b-
8BB-	8f	8b-	8dd
4F	4.f	4a	4cc
8D	.	8b-	8dd
=144	=144	=144	=144
4C	8.g	4cc	8.ee-
.	16f	.	16dd
8r	8e-	8r	8cc
8E-	4.e-	4.c	8g
8C	.	.	8b-
8F	.	.	8a
=145	=145	=145	=145
8BB-	4d	8B-	4b-
8BB-	.	16B-	.
.	.	16A	.
8BB-	8f	16B-	8dd
.	.	16A	.
[4.BB-	4d	4B-	4b-
.	8d	8f	8r
=146	=146	=146	=146
2.BB-_	4e-	4g	2.r
.	8d	8f	.
.	8.c	8.e-	.
.	16B-	16d	.
.	8c	8e-	.
=147	=147	=147	=147
2.BB-]	2d	8f	2r
.	.	8a	.
.	.	8b-	.
.	.	4.f	.
.	8a	.	8r
.	8b-	.	8dd
=148	=148	=148	=148
2.FF	2.f	2.a 2.c	16ee-
.	.	.	16ff
.	.	.	16gg
.	.	.	16ff
.	.	.	16ee-
.	.	.	16dd
.	.	.	16cc
.	.	.	16b-
.	.	.	16a
.	.	.	16g
.	.	.	16f
.	.	.	16e-
=149	=149	=149	=149
2BB-	[2f	[2b-	16d
.	.	.	16e-
.	.	.	16f
.	.	.	16g
.	.	.	16a
.	.	.	16b-
.	.	.	4f
8BB-	8f] 8B-	8b-] 8d	.
8BB-	8d	8f	8r
=150	=150	=150	=150
[2.BB-	4e-	4g	2.r
.	8d	8f	.
.	8.c	8.e-	.
.	16B-	16d	.
.	8c	8e-	.
=151	=151	=151	=151
2.BB-]	2d	8f	2r
.	.	8a	.
.	.	8b-	.
.	.	4.f	.
.	8a	.	8r
.	8b-	.	8dd
=152	=152	=152	=152
2.FF	4.a	2.cc 2.e-	16ee-
.	.	.	16dd
.	.	.	16cc
.	.	.	16b-
.	.	.	16a
.	.	.	16b-
.	[4.f	.	16cc
.	.	.	16dd
.	.	.	16ee-
.	.	.	16ff
.	.	.	16gg
.	.	.	16aa
=153	=153	=153	=153
8BB-	8f]	8b- 8d	8bb-
4r	4r	4r	16r
.	.	.	16b-
.	.	.	16a
.	.	.	16b-
4.F	[4.f	4.cc 4.e-	16cc
.	.	.	16dd
.	.	.	16ee-
.	.	.	16ff
.	.	.	16gg
.	.	.	16aa
=154	=154	=154	=154
8B-	8f]	8b- 8d	8bb-
4r	4r	4r	16r
.	.	.	16b-
.	.	.	16a
.	.	.	16b-
4.F	[4.f	4.cc 4.e-	16cc
.	.	.	16dd
.	.	.	16ee-
.	.	.	16ff
.	.	.	16gg
.	.	.	16aa
=155	=155	=155	=155
8B-	8f]	8b- 8d	8bb-
8B-	8b-	8bb-	4r
8B-	8b-	8bb-	.
8r	8r	8r	8gg
8G	8g	8gg	4r
8G	8g	8gg	.
=156	=156	=156	=156
8r	8r	8r	8dd
8D	8d	8dd	4r
8D	8d	8dd	.
8r	8r	8r	8ee
8E	8e	8ee	4r
8E	8e	8ee	.
=157	=157	=157	=157
[2.F	8r	8r	[2.ff
.	8A	8c	.
.	8c	8e-	.
.	8B-	8d	.
.	8A	8c	.
.	8G	8B-	.
=158	=158	=158	=158
2.F_	8F	8A	2.ff_
.	8A	8c	.
.	8c	8e-	.
.	8B-	8d	.
.	8A	8c	.
.	8G	8B-	.
=159	=159	=159	=159
8F]	8F	8A	8ff]
8r	8r	8r	8gg
8C	8G	8B-	8ee
8F	8F	8A	8ff
8r	8r	8r	8aa
8C	8G	8B-	8ee
=160	=160	=160	=160
8F	8F	8A	8ff
8r	8r	8r	8ccc
8c	8g	8b-	8ee
8F	8f	8a	8ff
8r	8r	8r	8fff
8c	8g	8b-	8ee
=161	=161	=161	=161
8F	8f	8a	8ff
8F	8c	8a	8ff
8F	8c	8a	8ff
8F	8c	8a	8ff
8F	8c	8a	8ff
8F	8c	8a	8ff
=162	=162	=162	=162
4F	4c	4a	4ff
2r	2r	2r	8r
.	.	.	4ff
.	.	.	8r
=163	=163	=163	=163
2.r	2r	2r	2.ff
.	8r	8r	.
.	8d	8f	.
=164	=164	=164	=164
2.r	8d	8f	2.ff
.	8B-	8d	.
.	8B-	8d	.
.	8B-	8d	.
.	8D	8B-	.
.	8D	8B-	.
=165	=165	=165	=165
4D	4F	4B-	2.ff
8BB-	8B-	8d	.
4F	4A	4c	.
8r	8B	8d	.
=166	=166	=166	=166
2.r	16c	16e-	2.ff
.	16d	16f	.
.	8c	8e-	.
.	8A	8c	.
.	16A	16c	.
.	16B-	16d	.
.	8A	8c	.
.	8C	8A	.
=167	=167	=167	=167
4FF	4C	4A	4.ff
8AA	8c	8e-	.
4BB-	8B-	4d	4f
.	8b-	.	.
8r	8b-	8gg	8bb-
=168	=168	=168	=168
4E-	2.b-	8gg	8bb-
.	.	8ee-	8gg
2r	.	8ee-	8gg
.	.	8ee-	8gg
.	.	8g	8ee-
.	.	8g	8ee-
=169	=169	=169	=169
4G	2.b-	4b-	4ee-
8E-	.	8ee-	8gg
4B-	.	4dd	4ff
8r	.	8ee	8gg
=170	=170	=170	=170
2.r	2.b-	16ff	16aa-
.	.	16gg	16bb-
.	.	8ff	8aa-
.	.	8dd	8ff
.	.	16dd	16ff
.	.	16ee-	16gg
.	.	8dd	8ff
.	.	8f	8dd
=171	=171	=171	=171
4BB-	4.b-	4f	4dd
8D	.	8ff	8aa-
4E-	4B-	4ee-	4gg
8D	8f	8b	[8gg
=172	=172	=172	=172
4.C	[2e-	4.cc	8gg]
.	.	.	16aa
.	.	.	16bb
.	.	.	16ccc
.	.	.	16ddd
4.c	.	4g	16eee-
.	.	.	16ddd
.	8e-]	.	16ccc
.	.	.	16bb-
.	8cc	8ee-	16aa
.	.	.	16gg
=173	=173	=173	=173
4.A	4.cc	4.ee-	16gg
.	.	.	16ff
.	.	.	16gg
.	.	.	16aa
.	.	.	16bb-
.	.	.	16ccc
4.B-	[4.b-	[4.dd	16ddd
.	.	.	16ccc
.	.	.	16bb-
.	.	.	16aa
.	.	.	16gg
.	.	.	16ff
=174	=174	=174	=174
4.G	4.b-]	4.dd]	16ff
.	.	.	16ee-
.	.	.	16ff
.	.	.	16gg
.	.	.	16aa
.	.	.	16bb-
4.A	[4.a	[4.cc	16ccc
.	.	.	16bb-
.	.	.	16aa
.	.	.	16gg
.	.	.	16ff
.	.	.	16ee-
=175	=175	=175	=175
4.F#	4.a]	4.cc]	16ee-
.	.	.	16dd
.	.	.	16ee
.	.	.	16ff#
.	.	.	16gg
.	.	.	16aa
4.G	[4.g	4.b-	16bb-
.	.	.	16aa
.	.	.	16gg
.	.	.	16ff
.	.	.	16ee-
.	.	.	16dd
=176	=176	=176	=176
8E-	8g]	8cc	8cc
4r	4r	4r	8gg
.	.	.	8ff
8C	8G	8g	8ee-
8D	8B	8f	8dd
8E-	8c	8e-	8cc
=177	=177	=177	=177
4.F	[2F	4d	4b-
.	.	4.c	4a
4.AA	.	.	.
.	8F]	.	8g
.	8c	8e-	8f
=178	=178	=178	=178
4.BB-	4.B-	8d	8f
.	.	8f	8b-
.	.	8d	8f
8D	8F	8d	8f
8E-	8G	8c	8e-
8E	8G	8B-	8d
=179	=179	=179	=179
4.F	[2.F	8B-	8d
.	.	8A	8c
.	.	4e-	4g
4.AA	.	.	.
.	.	8d	8f
.	.	8c	8e-
=180	=180	=180	=180
4.BB-	2F_	8c	8e-
.	.	8B-	8d
.	.	4d	4f
4D	.	.	.
.	8F]	8c	8e-
8E-	8G	8B-	8d
=181	=181	=181	=181
4.F	4.F	8B-	8d
.	.	8A	8c
.	.	4ee-	4gg
4.A	[4.f	.	.
.	.	8dd	8ff
.	.	8cc	8ee-
=182	=182	=182	=182
4.B-	4f]	8cc	8ee-
.	.	8b-	8dd
.	8d	4dd	4ff
4.G	4.B-	.	.
.	.	8r	8dd
.	.	8b-	8b-
=183	=183	=183	=183
4.F	4.c	4.a	16ff
.	.	.	16gg
.	.	.	16ff
.	.	.	16gg
.	.	.	8ff
4.r	4.r	8r	4.r
.	.	8dd	.
.	.	8b-	.
=184	=184	=184	=184
2.r	2r	16f	2.r
.	.	16g	.
.	.	16f	.
.	.	16g	.
.	.	8f	.
.	.	4.r	.
.	8d	.	.
.	8B-	.	.
=185	=185	=185	=185
2r	16f	2.r	2.r
.	16g	.	.
.	16f	.	.
.	16g	.	.
.	8f	.	.
.	4.r	.	.
8D	.	.	.
8BB-	.	.	.
=186	=186	=186	=186
16FF	4.r	2.r	2.r
16GG	.	.	.
16FF	.	.	.
16GG	.	.	.
8FF	.	.	.
4.r	16F	.	.
.	16G	.	.
.	16F	.	.
.	16G	.	.
.	8F	.	.
=187	=187	=187	=187
2.r	2.r	16f	4.r
.	.	16g	.
.	.	16f	.
.	.	16g	.
.	.	8f	.
.	.	4.r	16ff
.	.	.	16gg
.	.	.	16ff
.	.	.	16gg
.	.	.	8ff
=188	=188	=188	=188
4.FF	2.r	4.A	16e-
.	.	.	16f
.	.	.	16e-
.	.	.	16f
.	.	.	8e-
4.GG-	.	4.B-	8r
.	.	.	8e-
.	.	.	8e-
=189	=189	=189	=189
4.FF	16E-	4.c	4b-
.	16F	.	.
.	16E-	.	.
.	16F	.	.
.	8E-	.	8a
4.GG-	8r	4.B-	4.r
.	8E-	.	.
.	8E-	.	.
=190	=190	=190	=190
4.FF	4B-	4.c	16ee-
.	.	.	16ff
.	.	.	16ee-
.	.	.	16ff
.	8A	.	8ee-
4.G-	4.r	4.B-	8r
.	.	.	8ee-
.	.	.	8ee-
=191	=191	=191	=191
4.F	16e-	4.c	4bb-
.	16f	.	.
.	16e-	.	.
.	16f	.	.
.	8e-	.	8aa
4.E-	[4.f	4cc	4eee-
.	.	16a	16ccc
.	.	16cc	16aa
=192	=192	=192	=192
8D	8f]	8b-	16bb-
.	.	.	16ccc
4r	4r	4r	16bb-
.	.	.	16ccc
.	.	.	8ddd
8E-	8e-	8b-	16gg
.	.	.	16aa
4r	4r	4r	16gg
.	.	.	16aa
.	.	.	8bb-
=193	=193	=193	=193
8G	8B-	8b-	16ee-
.	.	.	16ff
4r	4r	4r	16ee-
.	.	.	16ff
.	.	.	8gg
8A	8c	8f	16cc
.	.	.	16dd
4r	4r	4r	16cc
.	.	.	16dd
.	.	.	8ee-
=194	=194	=194	=194
4.B-	4.B-	8f	8dd
.	.	8ee-	8gg
.	.	8dd	8ff
8E-	8g	8cc	8ee-
8F	8f	8b-	8dd
8F	8e-	8a	8cc
=195	=195	=195	=195
4BB-	4d	4b-	4b-
2r	2r	8r	2r
.	.	8b-	.
.	.	8cc	.
.	.	8dd	.
=196	=196	=196	=196
4A	4e-	16f	2.r
.	.	16g	.
.	.	16f	.
.	.	16g	.
8B-	8d	8f	.
4.r	4.r	8b-	.
.	.	8cc	.
.	.	8dd	.
=197	=197	=197	=197
4A	4e-	16f	2.r
.	.	16g	.
.	.	16f	.
.	.	16g	.
8B-	8d	8f	.
4.r	4.r	8b-	.
.	.	8cc	.
.	.	8dd	.
=198	=198	=198	=198
4F#	4c	16d	2.r
.	.	16e-	.
.	.	16d	.
.	.	16e-	.
8G	8B-	8d	.
4B	4f	16g	.
.	.	16a-	.
.	.	16g	.
.	.	16a-	.
8c	8e-	8g	.
=199	=199	=199	=199
4E	4B-	16cc	2.r
.	.	16dd	.
.	.	16cc	.
.	.	16dd	.
8F	8A	8cc	.
4A	4e-	16ff	.
.	.	16gg	.
.	.	16ff	.
.	.	16gg	.
8B-	8d	8ff	.
=200	=200	=200	=200
4E-	8r	8r	2.r
.	8e-	8gg	.
8r	8d	8ff	.
4F	8c	8ee-	.
.	8B-	8dd	.
8r	8A	8cc	.
=201	=201	=201	=201
4BB-	4B-	4b-	4.r
2r	2r	2r	.
.	.	.	8bb-
.	.	.	8ccc
.	.	.	8ddd
=202	=202	=202	=202
2.r	4a	4ee-	16ff
.	.	.	16gg
.	.	.	16ff
.	.	.	16gg
.	8b-	8dd	8ff
.	4.r	4.r	8bb-
.	.	.	8ccc
.	.	.	8ddd
=203	=203	=203	=203
2.r	4a	4ee-	16ff
.	.	.	16gg
.	.	.	16ff
.	.	.	16gg
.	8b-	8dd	8ff
.	4.r	4.r	8bb-
.	.	.	8ccc
.	.	.	8ddd
=204	=204	=204	=204
2.r	4d	4a-	16b-
.	.	.	16cc
.	.	.	16b-
.	.	.	16cc
.	8e-	8g	8b-
.	4e	4b-	16cc
.	.	.	16dd
.	.	.	16cc
.	.	.	16dd
.	8f	8a	8cc
=205	=205	=205	=205
4F#	4c	16d	16dd
.	.	16e-	16ee-
.	.	16d	16dd
.	.	16e-	16ee-
8G	8B-	8d	8dd
4A	4e-	16f	16ff
.	.	16g	16gg
.	.	16f	16ff
.	.	16g	16gg
8B-	8d	8f	8ff
=206	=206	=206	=206
4E-	8r	8r	8r
.	8e-	8g	8gg
8r	8d	8f	8ff
4F	8c	8e-	8ee-
.	8B-	8d	8dd
8r	8A	8c	8cc
=207	=207	=207	=207
4BB-	16b-	4B-	2.b-
.	16cc	.	.
.	16b-	.	.
.	16cc	.	.
2r	8dd	8r	.
.	16g	16b-	.
.	16a	16cc	.
.	16g	16b-	.
.	16a	16cc	.
.	8b-	8dd	.
=208	=208	=208	=208
16e-	16g	16cc	2.gg
16f	16a	16dd	.
16e-	16g	16cc	.
16f	16a	16dd	.
8g	8b-	8ee-	.
16c	16e-	16a	.
16d	16f	16b-	.
16c	16e-	16a	.
16d	16f	16b-	.
8e-	8g	8cc	.
=209	=209	=209	=209
4A	4c	4ee-	16ff
.	.	.	16gg
.	.	.	16ff
.	.	.	16gg
8B-	8d	8dd	8ff
8E-	8g	8cc	8ee-
8F	8f	8b-	8dd
8F	8e-	8a	8cc
=210	=210	=210	=210
16B-	16d	4b-	2.b-
16c	16e-	.	.
16B-	16d	.	.
16c	16e-	.	.
8d	8f	2r	.
16G	16B-	.	.
16A	16c	.	.
16G	16B-	.	.
16A	16c	.	.
8B-	8d	.	.
=211	=211	=211	=211
16E-	16G	16c	2.gg
16F	16A	16d	.
16E-	16G	16c	.
16F	16A	16d	.
8G	8B-	8e-	.
16C	16E-	16A	.
16D	16F	16B-	.
16C	16E-	16A	.
16D	16F	16B-	.
8E-	8G	8c	.
=212	=212	=212	=212
2.AA	2.c	2.e-	2.gg-
=213	=213	=213	=213
2.BB	2.d	2.a-	2.ff
=214	=214	=214	=214
2.C#	2.g	2.b-	2.ee
=215	=215	=215	=215
4.D	4.a-	4.b	4.ff
4.E	[4.b-	4.dd-	4.gg
=216	=216	=216	=216
8F	8b-]	8dd	8ff
2r	2r	2r	8ee
.	.	.	8ee-
.	.	.	8dd
.	.	.	8dd-
8r	8r	8r	8cc
=217	=217	=217	=217
2.FF	4.d	4.f	4.b-
.	4.e-	4.a	4.cc
=218	=218	=218	=218
[2.BB-	4.d	4.b-	[2.b-
.	4r	4r	.
.	8d	8f	.
=219	=219	=219	=219
2.BB-_	4e-	4g	2.b-_
.	8d	8f	.
.	8.c	8.e-	.
.	16B-	16d	.
.	8c	8e-	.
=220	=220	=220	=220
2BB-_	4c#	4e	2b-_
.	8d	8f	.
.	4B-	4d	.
8BB-]	.	.	8b-]
8D	8F	8A-	8b
=221	=221	=221	=221
4.E-	4.E-	4.G	4cc
.	.	.	8b-
4.F	4.c	4.e-	8.a
.	.	.	16g
.	.	.	8a
=222	=222	=222	=222
[2.B-	4.B-	4.d	8b-
.	.	.	8dd
.	.	.	8ff
.	4r	4r	[4.bb-
.	8dd	8ff#	.
=223	=223	=223	=223
2.B-_	4ee-	4gg	2.bb-_
.	8dd	8ff	.
.	8.cc	8.ee-	.
.	16b-	16dd	.
.	8cc	8ee-	.
=224	=224	=224	=224
4B-]	4cc#	4ee	4.bb-]
8A-	8dd	8ff	.
4.G	8.a-	8.ff	4.bb
.	16g	16ee-	.
.	8f	8dd	.
=225	=225	=225	=225
4c	4e-	4cc	8ccc
.	.	.	8eee-
8r	8r	8r	8ggg
4F	4e-	4cc	8ggg
.	.	.	8fff
8r	8r	8r	8aa
=226	=226	=226	=226
4B-	4d	4b-	8bb-
.	.	.	8ddd
8r	8r	8r	8fff
4G	4b-	4dd	8fff
.	.	.	8eee-
8r	8r	8r	8ddd
=227	=227	=227	=227
8E-	8ee-	8gg	8r
4r	4r	4r	8bb
.	.	.	8ccc
8F	8cc	8ee-	8r
4r	4r	4r	8eee-
.	.	.	8aa
=228	=228	=228	=228
8G	8b-	8dd	8r
4r	4r	4r	8ccc
.	.	.	8bb-
8D	8f	8b-	8r
4r	4r	4r	8ff
.	.	.	8dd
=229	=229	=229	=229
8E-	8e-	8g	8r
4r	4r	4r	8b
.	.	.	8cc
8F	8A	8e-	8r
4r	4r	4r	8ee-
.	.	.	8cc
=230a	=230a	=230a	=230a
8BB-	8B-	8d	8b-
8r	4r	8r	8r
8r	.	8r	8r
8B-	8f	8dd	8bb-
8r	4r	8r	8r
8r	.	8r	8r
=231a	=231a	=231a	=231a
4B-	4f	4dd	4bb-
8r	2r	8r	8r
8r	.	8r	8r
8r	.	8r	8r
8r	.	8r	8r
=230b	=230b	=230b	=230b
8BB-	8B-	8d	8b-
4r	4r	4r	4r
8B-	8f	8dd	8bb-
4r	4r	4r	4r
=231b	=231b	=231b	=231b
4B-	4f	4dd	4bb-
2r	2r	2r	2r
=232	=232	=232	=232
4DD	4F	4A-	4b
8r	8r	8r	8r
4D	4f	4b	4aa-
8r	8r	8r	8r
=233	=233	=233	=233
4D	4f	4b	4aa-
2r	2r	2r	2r
=234	=234	=234	=234
2.r	2.r	2.r	2.ff#
=235	=235	=235	=235
2.r	2.r	2.r	2.gg
=236	=236	=236	=236
2.r	2.e-	[2.b- [2.g	[2.cc
=237	=237	=237	=237
2.r	2.e	2.b-] 2.g]	4.cc]
.	.	.	4dd-
.	.	.	8cc
=238	=238	=238	=238
[2.FF	4f	4a	4cc
.	2r	2r	4.r
.	.	.	8ff
=239	=239	=239	=239
2.FF_	2.r	4r	8ff
.	.	.	8dd
.	.	8b-	8dd
.	.	8b-	8dd
.	.	8g	8b-
.	.	8g	8b-
=240	=240	=240	=240
2.FF_	8r	8g	4b-
.	8F	8e-	.
.	8F	8e-	8gg
.	8F	4e-	4gg
.	8F	.	.
.	8F	8cc	8ee-
=241	=241	=241	=241
2.FF_	[2.F	4cc	8ee-
.	.	.	8cc
.	.	8a	8cc
.	.	8a	8cc
.	.	8f	8a
.	.	8f	8a
=242	=242	=242	=242
2.FF_	8F]	8f	4a
.	8F	8d	.
.	8F	8d	8ff
.	8F	4d	4ff
.	8F	.	.
.	8F	8b-	8dd
=243	=243	=243	=243
2.FF_	[2.F	4b-	8dd
.	.	.	8b-
.	.	8g	8b-
.	.	8g	8b-
.	.	8e-	8g
.	.	8e-	8g
=244	=244	=244	=244
2.FF_	4.F]	8e-	8g
.	.	8c	8ee-
.	.	8e-	8cc
.	[4.F	8f	8a
.	.	8d	8ff
.	.	8f	8dd
=245	=245	=245	=245
2FF_	4.F]	8g	8b-
.	.	8e-	8gg
.	.	8g	8ee-
.	[4.F	8a	8cc
8FF]	.	8f	8ff
8F	.	8a	8ee-
=246	=246	=246	=246
8F	4F]	4b-	4dd
8D	.	.	.
8D	8f	4.r	2r
8D	8f	.	.
8BB-	8d	.	.
8BB-	8d	8b-	.
=247	=247	=247	=247
4BB-	8d	8b-	4r
.	8B-	8g	.
8E-	8B-	8g	8bb-
4E-	4B-	8g	8bb-
.	.	8e-	8gg
8E-	8b-	8e-	8gg
=248	=248	=248	=248
8E-	8b-	4e-	8gg
8C	8cc	.	8ee-
8C	8cc	8g	8ee-
8C	4cc	8g	4ee-
8AA	.	8a	.
8AA	8r	8a	8ccc
=249	=249	=249	=249
4AA	2r	8a	4ccc
.	.	8f	.
8D	.	8f	8aa
4D	.	8f	8aa
.	8a	8d	8ff
8D	8a	8d	8ff
=250	=250	=250	=250
8D	8a	4d	8ff
8BB-	8b-	.	8dd
8BB-	8b-	8f	8dd
8BB-	4b-	8f	4dd
8GG	.	8g	.
8GG	8r	8g	8bb-
=251	=251	=251	=251
4GG	2r	8g	4bb-
.	.	8e-	.
8C	.	8e-	8gg
4C	.	4e-	8gg
.	8c	.	8ee-
8C	8c	8e-	8ee-
=252	=252	=252	=252
8C	8c	8e-	8ee-
8AA	8A	8c	8cc
8AA	8A	8c	8cc
8AA	8A	8c	8cc
8FF	8F	8A	8a
8FF	8F	8A	8a
=253	=253	=253	=253
4E-	4c	4g-	4aa
8r	8r	8r	8r
4E	4d-	4g	4bb-
8r	8r	8r	8r
=254	=254	=254	=254
2.r	4.r	2b-	2dd
.	[4.d	.	.
.	.	8cc	8ee-
.	.	8cc#	8ee
=255	=255	=255	=255
2.F	8d]	2dd	2ff
.	8e-	.	.
.	8e	.	.
.	4f	.	.
.	.	8cc	8ee-
.	8e-	8a	8cc
=256	=256	=256	=256
4BB-	4d	8b-	8b-
.	.	8d	8dd
8r	8r	8B-	8b-
4AA	4e- 4c	16f	16ff
.	.	16g	16gg
.	.	16f	16ff
.	.	16g	16gg
8r	8r	8f	8ff
=257	=257	=257	=257
4BB-	4d 4B-	8r	8r
.	.	8b-	8bb-
8r	8r	8dd	8ddd
4AA	4e- 4c	16f	16ff
.	.	16g	16gg
.	.	16f	16ff
.	.	16g	16gg
8r	8r	8f	8ff
=258	=258	=258	=258
4BB-	4d 4B-	8r	8r
.	.	8d	8dd
8r	8r	8B-	8b-
8A	8e- 8c	16f	16ff
.	.	16g	16gg
8A	8e- 8c	16f	16ff
.	.	16g	16gg
8A	8e- 8c	8f	8ff
=259	=259	=259	=259
4B-	4d 4B-	8r	8r
.	.	8b-	8bb-
8r	8r	8dd	8ddd
8A	8e- 8c	16f	16ff
.	.	16g	16gg
8A	8e- 8c	16f	16ff
.	.	16g	16gg
8A	8e- 8c	8f	8ff
=260	=260	=260	=260
16B-	16d	8dd 8f	8ff 8b-
16c	16e-	.	.
16B-	16d	4r	4r
16c	16e-	.	.
8d	8f	.	.
16G	16B-	8gg 8b-	8bb- 8dd
16A	16c	.	.
16G	16B-	4r	4r
16A	16c	.	.
8B-	8d	.	.
=261	=261	=261	=261
8E-	8G	8r	8r
4r	4r	8ee-	8gg
.	.	8cc	8ee-
8F	8A	8r	8r
4r	4r	8e-	8cc
.	.	8c	8a
=262	=262	=262	=262
4.D	2r	4.f	8b-
.	.	.	8dd
.	.	.	8b-
4.E-	.	4.a 4.c	16ff
.	.	.	16gg
.	8c	.	16ff
.	.	.	16gg
.	8F	.	8ff
=263	=263	=263	=263
4.D	16f	4.b- 4.d	8r
.	16g	.	.
.	16f	.	8bb-
.	16g	.	.
.	8f	.	8ddd
4.E-	8r	4.a 4.c	16ff
.	.	.	16gg
.	8a	.	16ff
.	.	.	16gg
.	8cc	.	8ff
=264	=264	=264	=264
8D	16f	8b- 8d	8r
.	16g	.	.
8D	16f	8b- 8d	8dd
.	16g	.	.
8D	8f	8b- 8d	8b-
8E-	8r	8cc 8a	16ff
.	.	.	16gg
8E-	8c	8cc 8a	16ff
.	.	.	16gg
8E-	8F	8cc 8a	8ff
=265	=265	=265	=265
8D	16f	8dd 8b-	8r
.	16g	.	.
8D	16f	8dd 8b-	8bb-
.	16g	.	.
8D	8f	8dd 8b-	8ddd
8E-	8r	8cc 8a	16ff
.	.	.	16gg
8E-	8a	8cc 8a	16ff
.	.	.	16gg
8E-	8cc	8cc 8a	8ff
=266	=266	=266	=266
8D	8f	16b-	16bb-
.	.	16cc	16ccc
4r	4r	16b-	16bb-
.	.	16cc	16ccc
.	.	8dd	8ddd
8E-	8e-	16g	16gg
.	.	16a	16aa
4r	4r	16g	16gg
.	.	16a	16aa
.	.	8b-	8bb-
=267	=267	=267	=267
8F	16B-	16d	8ff
.	16c	16e-	.
4r	16B-	16d	8dd
.	16c	16e-	.
.	8d	8f	8r
8FF	16A	16c	8ee-
.	16B-	16d	.
4r	16A	16c	8cc
.	16B-	16d	.
.	8c	8e-	8r
=268	=268	=268	=268
8D	16f	16bb- 16b-	2.r
.	16f	16bb- 16b-	.
8D	16f	16bb- 16b-	.
.	16f	16bb- 16b-	.
8D	16f	16bb- 16b-	.
.	16f	16bb- 16b-	.
8E-	16e-	16gg 16b-	.
.	16e-	16gg 16b-	.
8E-	16e-	16gg 16b-	.
.	16e-	16gg 16b-	.
8E-	16e-	16gg 16b-	.
.	16e-	16gg 16b-	.
=269	=269	=269	=269
8F	16d	16ff 16b-	2r
.	16d	16ff 16b-	.
8F	16d	16ff 16b-	.
.	16d	16ff 16b-	.
8F	16d	16ff 16b-	.
.	16d	16ff 16b-	.
8FF	16c	16f 16c	.
.	16c	16f 16c	.
8FF	16c	16f 16c	8r
.	16c	16f 16c	.
8FF	16c	16f 16c	8ff
.	16c	16f 16c	.
=270	=270	=270	=270
4BB-	4B-	4b- 4d	8ff
.	.	.	8dd
8B-	4.r	4.r	8dd
8B-	.	.	8dd
8G	.	.	8b-
8G	8g	8d	8b-
=271	=271	=271	=271
4G	4g	4d	4b-
8F	8B	8a-	8dd
4E-	4c	4g	4cc
8D	8f	8b	8dd
=272	=272	=272	=272
4C	4g	4cc	8.ee-
.	.	.	16dd
2r	2r	2r	8cc
.	.	.	8ff#
.	.	.	8gg
.	.	.	16ee-
.	.	.	16cc
=273	=273	=273	=273
8F	8f	16d	[2b-
.	.	16f	.
8F	8f	16d	.
.	.	16f	.
8F	8f	16d	.
.	.	16f	.
8F	8f	16d	.
.	.	16f	.
8F	8f	16d	8b-]
.	.	16f	.
8F	8a	16e-	8cc
.	.	16f	.
=274	=274	=274	=274
8BB-	8b-	8d	4b-
8B-	8d	8f	.
8B-	8d	8f	4r
8B-	8d	8f	.
4r	4r	4r	16dd
.	.	.	16cc
.	.	.	16ee-
.	.	.	16dd
=275	=275	=275	=275
8r	8r	8r	8ff
8F	8e- 8c	8a 8f	4.r
8F	8e- 8c	8a 8f	.
8F	8e- 8c	8a 8f	.
4r	4r	4r	16aa
.	.	.	16bb-
.	.	.	16ccc
.	.	.	16aa
=276	=276	=276	=276
8r	8r	8r	8bb-
8BB-	16B-	16d	4.r
.	16A	16c	.
8BB-	16c	16e-	.
.	16B-	16d	.
8BB-	8d	8f	.
4r	4r	4r	16dd
.	.	.	16cc
.	.	.	16ee-
.	.	.	16dd
=277	=277	=277	=277
8r	8r	8r	8ff
8FF	16A	16c	4.r
.	16G	16B-	.
8FF	16B-	16d	.
.	16A	16c	.
8FF	8c	8e-	.
4r	8f	16cc	16aa
.	.	16dd	16bb-
.	8f	16ee-	16ccc
.	.	16cc	16aa
=278	=278	=278	=278
4.r	4B-	4dd	4bb-
.	8r	8r	8r
4B-	4b-	4dd 4f 4B-	4bb- 4b- 4d
8r	8r	8r	8r
=279	=279	=279	=279
4BB-	4B-	4B-	4B-
2r	2r	2r	2r
==	==	==	==
*-	*-	*-	*-
!!!RWG1: This file contains only pitch and duration data.
!!!RWG2: Transposing instruments are not transposed.
!!!RWG3: Spines may have incompatible meters.
!!!RWG4: Durations of rests and tied notes may be interpreted.
!!!RWG: Key is interpreted using the Humdrum key tool.
!!!OPT: Hunt
!!!AFT: stage1
!!!END: 1997/04/15
!!!KEY: 4073265630
!!!EMD: Converted from MuseData to Humdrum Dec 16, 2000, by Andreas Kornstaedt using muse2kern.
!!!EMD: Manual editing by Craig Sapp, Nov 2001
